!!!COM: Anonymous
!!!OTL: N'esse pas bien pour departir
!!!AGN: Song; Chanson; Rondeau
!!!SCT: Ano3116
!!!SCA: Ano3116
!!!SMS: Dijon Chansonnier
!!!folio: 69v-70r
!!!SMS2: EscB
!!!SMS3: F176
!!!voices: 3
**kern	**kern	**kern
*staff3	*staff2	*staff1
*Ivox	*Ivox	*Ivox
*I"Contra	*I"Tenor	*I"Discantus
*I'C	*I'T	*I'D
*clefF4	*clefGv2	*clefG2
*k[b-]	*k[b-]	*k[b-]
*M3/1	*M3/1	*M3/1
*met(O)	*met(O)	*met(O)
=1-	=1-	=1-
!	!	!LO:TX:X=-40:Z=8:t=Disc. flat key sig. is editorial
1G	1G	0g
1E-i	2B-	.
.	2c	.
1D	1d	1f
=2	=2	=2
2BB-	1G	2.g
1GG	.	.
.	.	4f
.	1B-	1d
2G	.	.
2.D	2A	2.f
.	[2d	.
4E	.	4g
=3	=3	=3
2F	4d]	2a
.	4c	.
2D	1d	2.b-
1G	.	.
.	.	4a
.	2G	2.g
1D	1A	.
.	.	4f#i
.	.	4f#i
.	.	4e
=4	=4	=4
2GG	0.G	1g
1C	.	.
.	.	1r
2BB-	.	.
2GG	.	1d
2BB-	.	.
=5	=5	=5
1C	1r	1e-
1GG	1r	2d
.	.	1d
1G	1d	.
.	.	2B-
=6	=6	=6
1r	1e-i	2c
.	.	2A
0G	2d	1B-
.	1d	.
.	.	1G
.	2B-	.
=7	=7	=7
2C	2c	2r
1D	2A	1f
.	1B-	.
1GG	.	1g
.	1G	.
2G	.	2e
=8	=8	=8
2D	2A	2f
2G	2B-	2g
1F	2c	1a
.	1d	.
2G	.	2b-
2E	2G	[2g
=9	=9	=9
1D	1A	2g]
.	.	2f#i
2r	1G	2g
1GG	.	1d
.	1D	.
2D	.	2fni
=10	=10	=10
2C	1G	2e
2GG	.	4d
.	.	2d
2BB-	2F	.
.	.	8cL
.	.	8B-J
2AA	2.A	2c
1D	.	2A
.	4G	.
.	2F	[2d
=11	=11	=11
1AA	1E	2d]
.	.	2c#i
1.A	[0D	1dN
.	.	1r
[2F	.	.
=12	=12	=12
2F]	1D]	1d
2D	.	.
2E	1r	1c
2F	.	.
1D	1r	2d
.	.	[2B-
=13	=13	=13
1GG	1d	2B-]
.	.	2G
1r	1c	2.A
.	.	4B-
[1GG	2d	1G
.	[2B-	.
=14	=14	=14
1GG]	2B-]	1r
.	2G	.
1D	2A	1F
.	2B-	.
2r	1G	4B-
.	.	4c
2GG	.	2d
=15	=15	=15
2C	1r	4e-i
.	.	4d
2AA	.	4c
.	.	4B-
1D	1F	1A
2r	4B-	1G
.	4c	.
2BB-	2d	.
=16	=16	=16
2C	4e-i	2r
.	4d	.
2GG	4c	2d
.	4B-	.
2C	1A	2e
2D	.	2f
2GG	1G	2g
[2G	.	[2b-
=17	=17	=17
2G]	1d	2b-]
1F	.	2.a
.	2c	.
.	.	4g
2D	1d	4f
.	.	4e
1G	.	2d
.	2G	[2g
=18	=18	=18
1D	1A	2g]
.	.	2f#i
2BB-	2G	1g
2GG	2B-	.
1D	2A	2fni
.	[2d	2d
=19	=19	=19
1AA	2d]	1e
.	2c#i	.
2r	1d	2d
2BB-	.	2.d
4GG	2r	.
4AA	.	4e-i
4BB-	2G	4d
4C	.	8cL
.	.	8B-J
=20	=20	=20
1.D	2F	1A
.	2D	.
.	2F	2r
2GG	2G	2.d
1AA	1E	.
.	.	4Bni
.	.	2c#i
=21	=21	=21
2BB-	2D	1d
4GG	1G	.
4AA	.	.
4BB-	.	2e-i
4C	.	.
2D	2F	1d
2BB-	2G	.
2AA	2B-	2g
=22	=22	=22
1D	2A	2.f
.	1d	.
.	.	4g
1F	.	4a
.	.	4b-
.	2c	2cc
1G	2G	2b-
.	2B-	[2g
=23	=23	=23
1D	1A	2g]
.	.	2f#i
0GGl	0Gl	0gl
==	==	==
*-	*-	*-
!!!RDF**kern: l=long note in original notation
!!!RDF**kern: i=editorial accidental
!!!RDF**kern: N=signum congruentiae
!!!ENC: Chris Gage 08-18-2016
!!!END: 2018/09/28/
!!!EED: Jesse Rodin
!!!EEV: 2018/11/29/
!!!ONB: Translated from MusicXML and edited on 2018/11/29/ by Craig Sapp
!!muse2ps: C^@{COM}\n@{SMS}, @{folio}; also @{SMS2}, @{SMS3}^v95,95,150Q16
